X: 43
T: cellopog jig
M: 6/8
L: 1/8
R: jig
K: Cmin
|:G2c c2d|efe d2c|A2c cde|d2c =B2A|G2c c2d|efe d2c|A2c cde|d2=B c3:|
||efg a2g|Bcd e2d|c2d efe|d2c =B3|efg c3|def =B3|c2d efe|d2=B c3|
efg c3|def =B3|c2d efe|d2c =B3|efg a2g|Bcd e2d|c2d efe|d2=B c3||
